icons/svg/appnet.svg

﻿<?xml version="1.0" encoding="utf-8"?>
<!DOCTYPE svg PUBLIC "-//W3C//DTD SVG 1.1//EN" "http://www.w3.org/Graphics/SVG/1.1/DTD/svg11.dtd">
<svg xmlns="http://www.w3.org/2000/svg" xmlns:xlink="http://www.w3.org/1999/xlink" version="1.1" baseProfile="full" width="24" height="24" viewBox="0 0 24.00 24.00" enable-background="new 0 0 24.00 24.00" xml:space="preserve">
	<path fill="#000000" fill-opacity="1" stroke-width="0.2" stroke-linejoin="round" d="M 14.4739,9.14218C 15.0711,7.69194 16.1801,4.27962 16.3507,3.68246C 16.5213,3.0853 16.9479,3 17.2038,3L 19.2512,3C 19.5924,3 19.7844,3.25593 19.6991,3.68247C 17.545,11.2749 16.0948,13.4929 16.0948,14.0047C 16.0948,15.2844 17.4597,17.673 18.7393,17.673C 19.5071,17.673 19.3365,16.564 20.1896,16.564L 21.8104,16.564C 22.0664,16.564 22.3223,16.8199 22.3223,17.2464C 22.3223,17.673 21.8478,21 18.606,21C 15.3643,21 14.154,17.0812 14.154,17.0812C 13.7275,17.9343 11.2322,21 8.16114,21C 2.70142,21 1.67773,15.1991 1.67773,11.7867C 1.67773,8.3744 3.29858,3 7.90521,3C 12.5119,3 14.4739,9.14218 14.4739,9.14218 Z M 4.49289,11.5308C 4.49289,13.4929 4.40758,17.5877 8.00116,17.673C 10.0379,17.7583 11.9147,15.1991 12.8051,13.1517C 11.5735,8.88626 10.7204,6.32701 7.99052,6.32701C 4.32228,6.41232 4.49289,11.5308 4.49289,11.5308 Z "/>
</svg>

<svg xmlns="http://www.w3.org/2000/svg" version="1.1" baseProfile="full" width="24" height="24" viewBox="0 0 24.00 24.00" xml:space="preserve"><path fill="#000" fill-opacity="1" stroke-width=".2" stroke-linejoin="round" d="M14.474 9.142c.597-1.45 1.706-4.862 1.877-5.46.17-.597.598-.682.854-.682h2.047c.342 0 .534.256.45.682-2.155 7.593-3.605 9.81-3.605 10.323 0 1.28 1.365 3.668 2.644 3.668.767 0 .597-1.11 1.45-1.11h1.62c.256 0 .512.257.512.683 0 .427-.474 3.754-3.716 3.754s-4.452-3.92-4.452-3.92c-.427.854-2.922 3.92-5.993 3.92-5.46 0-6.482-5.8-6.482-9.213C1.678 8.374 3.298 3 7.905 3s6.57 6.142 6.57 6.142zm-9.98 2.39c0 1.96-.086 6.056 3.507 6.14 2.038.086 3.915-2.473 4.805-4.52-1.232-4.266-2.085-6.825-4.814-6.825-3.668.085-3.497 5.204-3.497 5.204z"/></svg>
